X:1
T:Title
%%score { 1 | 2 }
L:1/8
M:4/4
K:Bb
V:1 treble nm="Grand Piano"
V:2 bass 
V:1
 z4 z2 z[Q:1/4=100] [DF] | [DF]3 [DF] [EG][DF][CE]D | C2 D2 E3 E | E3 E FEDC | %4
 D2 [CE]2 [DF]3 [DF] | [DF]3 [DF] [EG][DF][CE]D | E2 G2 B3 [GB] | [FA]2 [=EG]2 [Ec]3 F | %8
[M:7/8] [FA]GF =E F3 |[M:1/8] F |[M:4/4] [Fd]2 [Ec]2 [DB]3 [FA] | GBAG [B,DF]3 [DF] | e2 d2 c3 B | %13
 AGAB c3 F | [Fd]2 [Ec]2 [DB]3 [FA] | GBAG [B,DF]3 [DF] | [Ff]2 [Ge]2 d3 d | %17
[M:17/16] dBcA[DFB]/-[DFB]/-[DFB]/-[DFB]/-[DFB]/-[DFB]-<[DFB] |] %18
V:2
 z4 z2 z [B,,B,] | [B,,B,]3 [B,,B,] [B,,B,][B,,B,][B,,F,][B,,F,B,] | [F,A,]2 [F,B,]2 [F,C]3 [F,C] | %3
 [F,A,C]3 [F,A,C] [F,A,C][F,A,C][F,B,][F,A,] | [B,,F,B,]2 [B,,F,]2 [B,,B,]3 [B,,B,] | %5
 [B,,B,]3 [B,,B,] [B,,B,][B,,B,][B,,F,][B,,F,B,] | [E,G,B,]2 [E,B,]2 [E,G,E]3 [E,B,] | %7
 [C,C]2 [C,B,]2 [C,G,]3 [C,A,] |[M:7/8] [C,C][C,B,C][C,A,C] [C,G,C] [F,A,C]3 |[M:1/8] [F,A,] | %10
[M:4/4] [B,,B,]2 [B,,F,]2 [B,,F,]3 [D,B,] | [E,B,E][E,G,E][E,G,E][E,B,E] B,,3 B,, | %12
 [F,CF]2 [F,B,F]2 [F,A,F]3 [F,DF] | [F,CF][F,B,F][F,CF][F,DF] [F,EF]3 [F,A,] | %14
 [B,,B,]2 [B,,F,]2 [B,,F,]3 [D,B,] | [E,B,E][E,G,E][E,G,E][E,B,E] B,,3 B,, | %16
 [D,B,]2 [E,B,]2 [F,B,F]3 [F,B,F] | %17
[M:17/16] [F,B,F][F,DF][F,EF][F,CF]B,,/-B,,/-B,,/-B,,/-B,,/-B,,-<B,, |] %18

